X: 22
T:She'll Be Right
M:6/8
L:1/8
C:Peter Cape
K:C
E2F|"C"G2G G2G|cc2 G2G|"F"A2A F2A|
"C"G3 z2E|"F"F2E D2F|!
"C"E2D C2E|"D"DC2 B,2C|"G"D3E2F|
"C"GG2 G2G|cc2 G2G|!
"F"A2A F2A|c2zA3|
"C"G3 EG2|"G"F3 E2D|"C"C6-|C3|
